X:1

T:Bashful Swain

M:2/2

L:1/8

K:Dmin

|: DE | F2A2A2 =B^c | d2A2A2f2 | e2d2e2 d^c | d6 :: fg | a2f2f2a2 |

g2c2c2e2 | f2d2d2 (d/e/f) | e2A2A2FG | AGAB AGFG | AGAB A2f2 | e2d2e2 (d^c) | d6 :|

           

BASILE WALTZ. See "'Tit Maurice."

           

BASKER’S DELIGHT. Canadian, Jig. Canada, Cape Breton. G Major. Standard tuning. AABB’. Composed by fiddler Brenda Stubbert (b. 1959, Point Aconi, Cape Breton, Nova Scotia), presumably in honor of musician Eddie Basker. Cranford (Brenda Stubbert’s), 1994; No. 119, pg. 42. Brenda Stubbert - “House Sessions” (1992).

           

BASKET OF EGGS, THE. AKA and see “Páinneach na nUbh [1].”

           

BASKET OF OYSTERS [1]. AKA and see "Paddy the Weaver." English. G Major. Standard tuning. AABB. Appears in Aird's Selection of 1788. Kidson (English Folksong and Dance), 1915; pg. 30.

 

BASKET OF OYSTERS [2]. Irish, English; Jig. D Major (Kidson, Levey): F Major (Vickers): G Major (Kennedy). Standard tuning. One part (Kidson): AB (Levey): AABB (Vickers): AABBCCDDEE (Kennedy). This tune was used by Thomas Moore as the vehicle for one of his songs in Irish Melodies (1834). The tune is actually made up of the first strain of ""Greensleeves" coupled with the second strain of "Paddy the Weaver." It appears in Northumbrian musician William Vickers’ 1770-72 music manuscript collection (pg. 22) under the title “Basket of Oysters or Green Sleeves.” See also the related “Bunch of Currents [1],” “The Bunch of Roses [3],” "Christmas Comes but Once a Year," "I've got one daughter to marry," "I'm a Silly Old Man,” “The Little Bogtrotter,” “Shady Lane,” “Spring in the Air.” Kennedy (Jigs & Quicksteps, Trips & Humours), 1997; No. 4, pg. 3. Kidson (English Folksong and Dance), 1915; pgs. 29‑30. Levey (Dance Music of Ireland, 2nd Collection), 1873; No. 78, pg. 35.

